src/icons/makefile.svg

<svg viewBox="0 0 24 24" xmlns="http://www.w3.org/2000/svg">
  <path
    d="M3.40302 2.46997C2.85667 2.46997 2.3327 2.68701 1.94638 3.07333C1.56005 3.45966 1.34302 3.98362 1.34302 4.52997V16.894C1.34302 17.4403 1.56005 17.9643 1.94638 18.3506C2.3327 18.7369 2.85667 18.954 3.40302 18.954H11.386L13.144 20.608C13.1975 20.6578 13.2669 20.6872 13.3399 20.6908C13.4129 20.6945 13.4848 20.6722 13.543 20.628L14.813 19.604C15.201 19.752 15.581 19.831 15.979 19.87L16.666 21.359C16.698 21.4238 16.7519 21.4751 16.8182 21.5039C16.8845 21.5326 16.9589 21.5369 17.028 21.516L19.362 20.812C19.4317 20.7906 19.4915 20.7452 19.5309 20.6839C19.5703 20.6225 19.5866 20.5492 19.577 20.477L19.332 18.857C19.483 18.732 19.628 18.602 19.766 18.455C19.904 18.308 20.028 18.148 20.153 17.98L21.773 18.137C21.8456 18.1417 21.9175 18.1207 21.9762 18.0778C22.0349 18.0348 22.0766 17.9726 22.094 17.902L22.648 15.528C22.666 15.4573 22.6577 15.3825 22.6246 15.3175C22.5915 15.2526 22.5358 15.2019 22.468 15.175L20.943 14.58C20.8811 14.1859 20.766 13.8021 20.601 13.439L21.543 12.105C21.5834 12.044 21.601 11.9707 21.5925 11.8981C21.5841 11.8254 21.5503 11.7581 21.497 11.708L19.887 10.199V4.53097C19.887 3.98462 19.67 3.46066 19.2837 3.07433C18.8973 2.68801 18.3734 2.47097 17.827 2.47097L3.40302 2.46997ZM3.40302 6.59097H17.826V10.974C17.516 10.874 17.206 10.806 16.886 10.77L16.196 9.28697C16.1645 9.22134 16.1102 9.16936 16.0433 9.14068C15.9764 9.11199 15.9013 9.10854 15.832 9.13097L13.498 9.83497C13.4277 9.85505 13.3672 9.90001 13.3276 9.96147C13.288 10.0229 13.2722 10.0967 13.283 10.169L13.543 11.775C13.383 11.909 13.231 12.045 13.093 12.191C12.9589 12.3364 12.834 12.49 12.719 12.651L11.088 12.509C11.0152 12.5024 10.9425 12.5227 10.8836 12.566C10.8247 12.6092 10.7836 12.6725 10.768 12.744L10.212 15.119C10.1955 15.1895 10.2046 15.2635 10.2375 15.3279C10.2705 15.3924 10.3252 15.4431 10.392 15.471L11.921 16.061C11.967 16.346 12.044 16.621 12.142 16.894H3.40302V6.59097ZM16.394 13.187C16.9492 13.1777 17.4861 13.3851 17.891 13.765C18.0957 13.9569 18.2607 14.1872 18.3763 14.4428C18.492 14.6985 18.5562 14.9744 18.5652 15.2549C18.5742 15.5353 18.5279 15.8148 18.4288 16.0773C18.3298 16.3399 18.18 16.5803 17.988 16.785C17.6001 17.1974 17.0644 17.439 16.4985 17.4566C15.9326 17.4743 15.3828 17.2665 14.97 16.879C14.5571 16.4915 14.315 15.956 14.2968 15.39C14.2786 14.8241 14.4859 14.2741 14.873 13.861C15.0686 13.6526 15.3039 13.4856 15.5652 13.3698C15.8265 13.254 16.1083 13.1919 16.394 13.187Z"
    fill="#EF5350"
  />
</svg>

<svg viewBox="0 0 24 24" xmlns="http://www.w3.org/2000/svg">
  <path
    d="M3.403 2.47a2.06 2.06 0 0 0-2.06 2.06v12.364a2.06 2.06 0 0 0 2.06 2.06h7.983l1.758 1.654a.31.31 0 0 0 .399.02l1.27-1.024c.388.148.768.227 1.166.266l.687 1.489a.305.305 0 0 0 .362.157l2.334-.704a.308.308 0 0 0 .215-.335l-.245-1.62c.151-.125.296-.255.434-.402.138-.147.262-.307.387-.475l1.62.157a.31.31 0 0 0 .321-.235l.554-2.374a.3.3 0 0 0-.18-.353l-1.525-.595a4.416 4.416 0 0 0-.342-1.141l.942-1.334a.31.31 0 0 0-.046-.397l-1.61-1.509V4.531a2.06 2.06 0 0 0-2.06-2.06zm0 4.121h14.423v4.383c-.31-.1-.62-.168-.94-.204l-.69-1.483a.301.301 0 0 0-.364-.156l-2.334.704a.301.301 0 0 0-.215.334l.26 1.606c-.16.134-.312.27-.45.416a4.743 4.743 0 0 0-.374.46l-1.631-.142a.3.3 0 0 0-.32.235l-.556 2.375a.306.306 0 0 0 .18.352l1.529.59c.046.285.123.56.221.833H3.403zm12.991 6.596a2.136 2.136 0 0 1 1.497.578 2.136 2.136 0 0 1 .097 3.02 2.136 2.136 0 0 1-3.018.094 2.136 2.136 0 0 1-.097-3.018 2.136 2.136 0 0 1 1.521-.674z"
    style="fill: #ef5350; stroke-width: 1.0302"
  />
</svg>
